!!!!SEGMENT: pl-cz--iii-487--001_went-johann-nepomuk--partita-es-allegro-assai.krn
!!!cenid: 18xx:2482
!!!COM: Went, Johann Nepomuk
!!!COM-rismid: pe30003326
!!!CDT: 1745-1801
!!!CNT: Czech
!!!OTL: Partita Es - Allegro assai
!!!PDT:
!!!AGN: Secular; Partita
!!!SMS-siglum: PL-CZ
!!!SMS-shelfmark: III-487
!!!SMS-shelfwork: 001-001 M
!!!SMS-variant:
!!!SMS-altvar:
!!!NIFC-rismid: 300000863
!!!URL-scan: http://repozytorium.nifc.pl/skany/pl-cz-nut--iii-487
!!!ONB-nifc: UWAGA: części Partiry: 1. Allegro assai, 2. Andante, 3. Menuetto, 4. Presto
**kern	**dynam	**kern	**dynam	**kern	**dynam	**kern	**dynam	**kern	**dynam
*part5	*part5	*part4	*part4	*part3	*part3	*part2	*part2	*part1	*part1
*staff5	*	*staff4	*	*staff3	*	*staff2	*	*staff1	*
*I"/: Corno Secondo :/ inDis	*	*I"/: Corno Primo :/ in Dis:	*	*I"/: Fagotti Due :/	*	*I"/: Clarinetto Secondo :/	*	*I"/: Clarinetto Primo :/	*
*I'cor 2	*	*I'cor 1	*	*I'fag	*	*I'cl 2	*	*I'cl 1	*
*clefG2	*	*clefG2	*	*clefF4	*	*clefG2	*	*clefG2	*
*ITrd5c9	*	*ITrd5c9	*	*	*	*ITrd1c2	*	*ITrd1c2	*
*	*	*	*	*ok[a-e-b-]	*	*	*	*	*
*k[b-e-a-]	*	*k[b-e-a-]	*	*k[b-e-a-]	*	*k[b-e-a-]	*	*k[b-e-a-]	*
*E-:	*	*E-:	*	*E-:	*	*E-:	*	*E-:	*
*M2/2	*	*M2/2	*	*M2/2	*	*M2/2	*	*M2/2	*
*met(c|)	*	*met(c|)	*	*met(c|)	*	*met(c|)	*	*met(c|)	*
=1	=1	=1	=1	=1	=1	=1	=1	=1	=1
!LO:TX:a:B:t=Alloro Aſsai	!	!LO:TX:a:B:t=Alloro Aſsai	!	!LO:TX:a:B:t=Alloro aſsai	!	!LO:TX:a:B:t=Allo&colon;ro aſsai	!	!LO:TX:a:B:t=Allo&colon;ro aſsai	!
4G'/	.	4e-'\	f	4E-\	.	(4G/	.	(4e-/	.
4B-'/	.	4f'\	.	4BB-/	.	4A-/)	.	4d/)	.
4G'/	.	4e-'\	.	4EE-/	.	(4G/	.	(4e-/	.
4B-'/	.	4f'\	.	4BB-/	.	4A-/)	.	4d/)	.
=2	=2	=2	=2	=2	=2	=2	=2	=2	=2
4G'/	.	4e-'\	.	4E-\	.	(4G/	.	(4e-/	.
4B-'/	.	4f'\	.	4BB-/	.	4A-/)	.	4d/)	.
4G'/	.	4e-'\	.	4EE-/	.	(4G/	.	(4e-/	.
4B-'/	.	4f'\	.	4BB-/	.	4A-/)	.	4d/)	.
=3	=3	=3	=3	=3	=3	=3	=3	=3	=3
4G/	.	4e-\	.	4E-\	.	4G'/	.	4e-'/	.
4r	.	4r	.	4D\	.	4A-'/	.	4f'/	.
2r	.	2r	.	4E-\	.	4B-'/	.	4g'/	.
.	.	.	.	4AA-/	.	4c'/	.	4a-'/	.
=4	=4	=4	=4	=4	=4	=4	=4	=4	=4
!LO:TX:a:t=1	!	!LO:TX:a:t=1	!	!	!	!	!	!	!
.	.	.	.	.	.	.	.	16qqa-/	.
1r	.	1r	.	4BB-/	.	(2e-/	.	(2g/	.
.	.	.	.	4B-\	.	.	.	.	.
.	.	.	.	4BB-/	.	4d/)	.	4f/)	.
.	.	.	.	4r	.	4r	.	4r	.
=5	=5	=5	=5	=5	=5	=5	=5	=5	=5
(4B-/	.	4f'\	.	4BB-/	.	(4d/	.	(4f/	.
4G/)	.	4e-'\	.	4E-\	.	4e-/)	.	4e-/)	.
(4B-/	.	4f'\	.	4BB-/	.	(4d/	.	(4f/	.
4G/)	.	4e-'\	.	4E-\	.	4e-/)	.	4e-/)	.
=6	=6	=6	=6	=6	=6	=6	=6	=6	=6
(4B-/	.	4f'\	.	4BB-/	.	(4d/	.	(4f/	.
4G/)	.	4e-'\	.	4E-\	.	4e-/)	.	4e-/)	.
(4B-/	.	4f'\	.	4BB-/	.	(4d/	.	(4f/	.
4G/)	.	4e-'\	.	4E-\	.	4e-/)	.	4e-/)	.
=7	=7	=7	=7	=7	=7	=7	=7	=7	=7
4B-/	.	4f\	.	4BB-/	.	4d'/	.	4f'/	.
4r	.	4r	.	4BB-/	.	4e-'/	.	4g'/	.
2r	.	2r	.	4BB-/	.	4f'/	.	4a-'/	.
.	.	.	.	4BB-/	.	4g'/	.	4b-'/	.
!	!	!	!	!LO:LB:g=original	!	!	!	!	!
=8	=8	=8	=8	=8	=8	=8	=8	=8	=8
!LO:TX:t=P:problem:nadmiarowy takt w cor 2	!	!	!	!LO:TX:t=P:problem:nadmiarowy takt w cor 2	!	!LO:TX:t=P:problem:nadmiarowy takt w cor 2	!	!LO:TX:t=P:problem:nadmiarowy takt w cor 2	!
1ryy	.	4f\	.	1ryy	.	1ryy	.	1ryy	.
.	.	4r	.	.	.	.	.	.	.
.	.	2r	.	.	.	.	.	.	.
=9	=9	=9	=9	=9	=9	=9	=9	=9	=9
!LO:TX:a:t=1	!	!LO:TX:a:t=1	!	!	!	!	!	!	!
.	.	.	.	.	.	.	.	16qqb-/	.
1r	.	1r	.	4E-\	.	(2f/	.	(2a-/	.
.	.	.	.	4BB-/	.	.	.	.	.
.	.	.	.	4EE-/	.	4e-/)	.	4g/)	.
.	.	.	.	4r	.	4r	.	4r	.
!LO:LB:g=original	!	!	!	!	!	!LO:LB:g=original	!	!LO:LB:g=original	!
=10	=10	=10	=10	=10	=10	=10	=10	=10	=10
*	*	*2\right	*	*	*	*	*	*	*
2E-/	.	2e-\	.	8E-\L	.	4g\	.	4b-\	.
.	.	.	.	8F\	.	.	.	.	.
*	*	*	*	*	*	*2\right	*	*2\right	*
.	.	.	.	8G\	.	2b-\	.	2gg\	.
.	.	.	.	8A-\J	.	.	.	.	.
2r	.	2r	.	4B-\	.	.	.	.	.
.	.	.	.	4BB-/	.	4a-\	.	4ff\	.
!	!	!LO:LB:g=original	!	!	!	!	!	!	!
=11	=11	=11	=11	=11	=11	=11	=11	=11	=11
2E-/	.	2e-\	.	8C\L	.	4g\	.	4ee-\	.
.	.	.	.	8D\	.	.	.	.	.
.	.	.	.	8E-\	.	2cc\	.	2ee-\	.
.	.	.	.	8F\J	.	.	.	.	.
2r	.	2r	.	4G\	.	.	.	.	.
.	.	.	.	4GG/	.	4b-\	.	4dd\	.
=12	=12	=12	=12	=12	=12	=12	=12	=12	=12
2E-/	.	2e-\	.	4AA-/	.	4a-\	.	4cc\	.
.	.	.	.	4A-\	.	2a-\	.	2cc\	.
2r	.	2r	.	8A-\L	.	.	.	.	.
.	.	.	.	8G\	.	.	.	.	.
.	.	.	.	8F\	.	4a-\	.	4cc\	.
.	.	.	.	8E-\J	.	.	.	.	.
=13	=13	=13	=13	=13	=13	=13	=13	=13	=13
*	*	*	*	*2\right	*	*	*	*	*
!LO:TX:a:t=3	!	!LO:TX:a:t=3	!	!	!	!	!	!	!
0r	.	0r	.	2D\	.	2a-\	.	2cc\	.
.	.	.	.	2E-\	.	(8g\L	.	(8b-\L	.
.	.	.	.	.	.	8a-\	.	8cc\	.
.	.	.	.	.	.	8b-\	.	8dd\	.
.	.	.	.	.	.	8cc\J)	.	8ee-\J)	.
=14	=14	=14	=14	=14	=14	=14	=14	=14	=14
.	.	.	.	.	.	16qqcc/	.	16qqee-/	.
.	.	.	.	4r	.	4b-\	.	4dd\	.
.	.	.	.	4E-\	.	8a-\L	.	8cc\L	.
.	.	.	.	.	.	8g\J	.	8b-\J	.
.	.	.	.	.	.	16qqg/	.	16qqb-/	.
.	.	.	.	4B-\	.	4f/	.	4a-\	.
.	.	.	.	4BB-/	.	8e-/L	.	8g/L	.
.	.	.	.	.	.	8d/J	.	8f/J	.
=15	=15	=15	=15	=15	=15	=15	=15	=15	=15
1r	.	1r	.	2E-\	.	4e-/	.	4e-/	.
.	.	.	.	.	.	4r	.	4r	.
.	.	.	.	2r	.	2r	.	2r	.
=16	=16	=16	=16	=16	=16	=16	=16	=16	=16
4G/	.	4e-\	.	4E-\	.	4e-/	.	4g/	.
4B-/	.	4f\	.	4D\	.	4f/	.	4a-/	.
!	!	!	!	!LO:LB:g=original	!	!	!	!	!
=-	=-	=-	=-	=-	=-	=-	=-	=-	=-
4G/	.	4e-\	.	4E-\	.	4e-/	.	4g/	.
4B-/	.	4f\	.	4C\	.	4e-/	.	4a/	.
!	!	!	!	!	!	!LO:LB:g=original	!	!	!
=17	=17	=17	=17	=17	=17	=17	=17	=17	=17
!	!	!	!	!	!	!	!	!LO:TX:t=P:problem:problem harmoniczny t.17	!
4e-\	.	4g\	.	4BB-/	.	4d/	.	4b-\	.
4f\	.	4a-\	.	4AAn/	.	4f/	.	4cc\	.
4e-\	.	4g\	.	4BB-/	.	4b-\	.	4dd\	.
4f\	.	4aX\	.	4AA/	.	4b-\	.	4ee-X\	.
!	!	!	!	!	!	!	!	!LO:LB:g=original	!
=18	=18	=18	=18	=18	=18	=18	=18	=18	=18
!LO:SIC:v:s=4c/	!	!	!	!LO:TX:t=P:problem:mixed beam	!	!	!	!	!
4B-/	.	4b-\	.	8FF/L	.	2.a\	.	2.ff\	.
.	.	.	.	8F\	.	.	.	.	.
4r	.	2f\	.	8En\	.	.	.	.	.
.	.	.	.	8F\J	.	.	.	.	.
2r	.	.	.	8An\L	.	.	.	.	.
.	.	.	.	8c\	.	.	.	.	.
.	.	4g\	.	8A\	.	4b-\	.	4ee-\	.
.	.	.	.	8F\J	.	.	.	.	.
=19	=19	=19	=19	=19	=19	=19	=19	=19	=19
!	!	!	!	!LO:TX:t=P:problem:mixed beam	!	!	!	!	!
4f\	.	4f\	.	8FF/L	.	2b-\	.	2dd\	.
.	.	.	.	8F\	.	.	.	.	.
4r	.	4r	.	8En\	.	.	.	.	.
.	.	.	.	8F\J	.	.	.	.	.
2r	.	2r	.	8B-\L	.	4r	.	4r	.
.	.	.	.	8d\	.	.	.	.	.
.	.	.	.	8c\	.	8cc\L	.	4ff\	.
.	.	.	.	8F\J	.	8b-\J	.	.	.
=20	=20	=20	=20	=20	=20	=20	=20	=20	=20
!	!	!	!	!LO:TX:t=P:problem:mixed beam	!	!	!	!	!
4f\	.	2f\	.	8FF/L	.	2.a\	.	2.ff\	.
.	.	.	.	8F\	.	.	.	.	.
4r	.	.	.	8En\	.	.	.	.	.
.	.	.	.	8F\J	.	.	.	.	.
2r	.	2r	.	8An\L	.	.	.	.	.
.	.	.	.	8c\	.	.	.	.	.
.	.	.	.	8A\	.	4cc\	.	4ee-\	.
.	.	.	.	8F\J	.	.	.	.	.
!LO:LB:g=original	!	!	!	!	!	!	!	!	!
=21	=21	=21	=21	=21	=21	=21	=21	=21	=21
!	!	!	!	!LO:TX:t=P:problem:mixed beam	!	!	!	!	!
1B-	.	1f	.	8FF/L	.	2b-\	.	2dd\	.
.	.	.	.	8F\	.	.	.	.	.
.	.	.	.	8En\	.	.	.	.	.
.	.	.	.	8F\J	.	.	.	.	.
.	.	.	.	8B-\L	.	4r	.	4r	.
.	.	.	.	8d\	.	.	.	.	.
.	.	.	.	8c\	.	4b-\	.	4ff\	.
.	.	.	.	8F\J	.	.	.	.	.
!	!	!	!	!LO:LB:g=original	!	!	!	!	!
=22	=22	=22	=22	=22	=22	=22	=22	=22	=22
*2\right	*	*	*	*	*	*	*	*	*
2f\	.	2f\	.	4FF/	.	4a/	.	4ff\	.
.	.	.	.	4r	.	4f/	.	4r	.
2r	.	2r	.	2r	.	4g/	.	2r	.
.	.	.	.	.	.	4a/	.	.	.
=23	=23	=23	=23	=23	=23	=23	=23	=23	=23
!LO:TX:a:t=2	!	!LO:TX:a:t=2	!	!	!	!	!	!	!
0r	.	0r	.	4r	.	4b-\	.	4r	.
.	.	.	.	4F\	.	4a\	.	4f/	.
.	.	.	.	4G\	.	4b-\	.	4g/	.
.	.	.	.	4An\	.	4cc\	.	4a/	.
=24	=24	=24	=24	=24	=24	=24	=24	=24	=24
.	.	.	.	2B-\	.	4dd\	.	4b-\	.
.	.	.	.	.	.	4cc\	.	4a\	.
.	.	.	.	4r	.	4b-\	.	4b-\	.
.	.	.	.	4F\	.	4f/	.	4cc\	.
!	!	!	!	!	!	!LO:LB:g=original	!	!	!
=25	=25	=25	=25	=25	=25	=25	=25	=25	=25
4B-/	.	4f\	.	4BB-/	.	2f/	.	8dd\L	.
.	.	.	.	.	.	.	.	8ff\	.
4r	.	4r	.	4r	.	.	.	8eeX\	.
.	.	.	.	.	.	.	.	8ff\J	.
!	!	!LO:LB:g=original	!	!	!	!	!	!LO:LB:g=original	!
=-	=-	=-	=-	=-	=-	=-	=-	=-	=-
4f\	.	4r	.	4r	.	4r	.	8gg\L	.
.	.	.	.	.	.	.	.	8ff\	.
4r	.	4f\	.	4F\	.	4cc\	.	8aa\	.
.	.	.	.	.	.	.	.	8ff\J	.
=26	=26	=26	=26	=26	=26	=26	=26	=26	=26
4B-/	.	4f\	.	4BB-/	.	4dd\	.	8bb-\L	.
.	.	.	.	.	.	.	.	8ff\	.
4r	.	4r	.	4r	.	4r	.	8eeX\	.
.	.	.	.	.	.	.	.	8ff\J	.
4f\	.	4r	.	4r	.	4r	.	8gg\L	.
.	.	.	.	.	.	.	.	8ff\	.
4r	.	4f\	.	4F\	.	4cc\	.	8aa\	.
.	.	.	.	.	.	.	.	8ff\J	.
=27	=27	=27	=27	=27	=27	=27	=27	=27	=27
4B-/	.	4f\	.	4BB-/	.	4dd\	.	8bb-\L	.
.	.	.	.	.	.	.	.	8ff\	.
4r	.	4r	.	4r	.	4r	.	8eeX\	.
.	.	.	.	.	.	.	.	8ff\J	.
4r	.	4r	.	4r	.	4r	.	8gg\L	.
.	.	.	.	.	.	.	.	8ff\	.
4f\	.	4f\	.	4F\	.	4cc\	.	8aa\	.
.	.	.	.	.	.	.	.	8ff\J	.
=28	=28	=28	=28	=28	=28	=28	=28	=28	=28
4B-/	.	4f\	.	4BB-/	.	4dd\	.	4bb-\	.
4r	.	4r	.	4r	.	4r	.	4r	.
2r	.	2r	.	2r	.	2r	.	2r	.
=29	=29	=29	=29	=29	=29	=29	=29	=29	=29
!LO:TX:a:t=4	!	!LO:TX:a:t=4	!	!	!	!	!	!	!
00r	.	00r	.	4r	.	4b-\	.	4dd\	.
.	.	.	.	4B-\	.	2b-\	.	2dd\	.
!	!	!	!	!LO:SIC:v:s=4G\	!	!	!	!	!
.	.	.	.	4A-\	.	.	.	.	.
.	.	.	.	4E-\	.	4cc\	.	4ee-\	.
!	!	!	!	!LO:LB:g=original	!	!	!	!	!
=30	=30	=30	=30	=30	=30	=30	=30	=30	=30
.	.	.	.	4F\	.	2b-\	.	2dd\	.
.	.	.	.	4FF/	.	.	.	.	.
.	.	.	.	4F\	.	4a\	.	4cc\	.
.	.	.	.	4r	.	8a\L	.	(8cc\L	.
.	.	.	.	.	.	8b-\J	.	8dd\J)	.
=31	=31	=31	=31	=31	=31	=31	=31	=31	=31
.	.	.	.	4r	.	4cc\	.	4ee-\	.
.	.	.	.	4c\	.	2cc\	.	2ee-\	.
.	.	.	.	4An\	.	.	.	.	.
.	.	.	.	4F\	.	4dd\	.	4ff\	.
!	!	!	!	!	!	!	!	!LO:LB:g=original	!
=32	=32	=32	=32	=32	=32	=32	=32	=32	=32
.	.	.	.	4B-\	.	2cc\	.	2ee-\	.
.	.	.	.	4F\	.	.	.	.	.
.	.	.	.	4BB-/	.	4b-\	.	4dd\	.
.	.	.	.	4r	.	8b-\L	.	(8dd\L	.
.	.	.	.	.	.	8cc\J	.	8ee-\J)	.
!	!	!	!	!	!	!LO:LB:g=original	!	!	!
=33	=33	=33	=33	=33	=33	=33	=33	=33	=33
4B-/	.	4f\	.	4BB-/	.	4dd\	.	8ff\L	.
.	.	.	.	.	.	.	.	8ff\	.
4r	.	4r	.	4r	.	4r	.	8eeX\	.
.	.	.	.	.	.	.	.	8ff\J	.
4r	.	4r	.	4r	.	4r	.	8gg\L	.
.	.	.	.	.	.	.	.	8ff\	.
4f\	.	4f\	.	4F\	.	4cc\	.	8aa\	.
.	.	.	.	.	.	.	.	8ff\J	.
!LO:LB:g=original	!	!	!	!	!	!	!	!	!
=34	=34	=34	=34	=34	=34	=34	=34	=34	=34
4B-/	.	4f\	.	4BB-/	.	4dd\	.	8bb-\L	.
.	.	.	.	.	.	.	.	8gg\	.
4r	.	4r	.	4r	.	4r	.	8eeX\	.
.	.	.	.	.	.	.	.	8ff\J	.
4r	.	4r	.	4r	.	4r	.	8gg\L	.
.	.	.	.	.	.	.	.	8ff\	.
4f\	.	4f\	.	4F\	.	4cc\	.	8aa\	.
.	.	.	.	.	.	.	.	8ff\J	.
=35	=35	=35	=35	=35	=35	=35	=35	=35	=35
4B-/	.	4f\	.	4BB-/	.	4dd\	.	8bb-\L	.
.	.	.	.	.	.	.	.	8gg\	.
4r	.	4r	.	4r	.	4r	.	8eeX\	.
.	.	.	.	.	.	.	.	8ff\J	.
4r	.	4r	.	4r	.	4r	.	8gg\L	.
.	.	.	.	.	.	.	.	8ff\	.
4f\	.	4f\	.	4F\	.	4cc\	.	8aa\	.
.	.	.	.	.	.	.	.	8ff\J	.
=36	=36	=36	=36	=36	=36	=36	=36	=36	=36
4B-/	.	4f\	.	4BB-/	.	4dd\	.	8bb-\	.
.	.	.	.	.	.	.	.	8r	.
4r	.	4r	.	4r	.	4r	.	4aa-X\	.
2r	.	2r	.	2r	.	2r	.	4gg\	.
.	.	.	.	.	.	.	.	4ff\	.
!	!	!	!	!LO:LB:g=original	!	!	!	!	!
=37	=37	=37	=37	=37	=37	=37	=37	=37	=37
!LO:TX:a:t=1	!	!	!	!	!	!	!	!	!
1r	.	2g\	.	4C\	.	2b-\	.	2eeX\	.
.	.	.	.	8c\L	.	.	.	.	.
.	.	.	.	8B-\J	.	.	.	.	.
!	!	!	!	!	!	!	!	!LO:LB:g=original	!
=-	=-	=-	=-	=-	=-	=-	=-	=-	=-
.	.	2f\	.	8An\L	.	2cc\	.	2ee-\	.
.	.	.	.	8F\	.	.	.	.	.
.	.	.	.	8G\	.	.	.	.	.
.	.	.	.	8A\J	.	.	.	.	.
=38	=38	=38	=38	=38	=38	=38	=38	=38	=38
4B-/	.	4f\	.	4B-\	.	4b-\	.	4dd\	.
4r	.	4r	.	4BB-/	.	8b-\L	.	(8dd\L	.
.	.	.	.	.	.	8dd\J	.	8ff\J)	.
.	.	.	.	.	.	16qqdd/	.	16qqff/	.
2r	.	2r	.	4F\	.	4cc\	.	4ee-\	.
.	.	.	.	4FF/	.	8b-\L	.	8dd\L	.
.	.	.	.	.	.	8a\J	.	8cc\J	.
!	!	!LO:LB:g=original	!	!	!	!	!	!	!
=39	=39	=39	=39	=39	=39	=39	=39	=39	=39
4B-/	.	4f\	.	4BB-/	.	8b-\L	.	8b-\L	.
.	.	.	.	.	.	8dd\	.	8ff\	.
4r	.	4r	.	4r	.	8cc\	.	8ee-\	.
.	.	.	.	.	.	8b-\J	.	8dd\J	.
2r	.	2r	.	2r	.	8cc\L	.	8ee-\L	.
.	.	.	.	.	.	8dd\	.	8ff\	.
.	.	.	.	.	.	8ee-\	.	8gg\	.
.	.	.	.	.	.	8cc\J	.	8aa\J	.
=40	=40	=40	=40	=40	=40	=40	=40	=40	=40
4B-/	.	4f\	.	8r	.	4dd\	.	4bb-\	.
.	.	.	.	8B-\L	.	.	.	.	.
4r	.	4r	.	8An\	.	4r	.	4r	.
.	.	.	.	8G\J	.	.	.	.	.
2r	.	2r	.	8F\L	.	2r	.	2r	.
.	.	.	.	8E-\	.	.	.	.	.
.	.	.	.	8D\	.	.	.	.	.
.	.	.	.	8C\J	.	.	.	.	.
!	!	!	!	!	!	!LO:LB:g=original	!	!	!
=41	=41	=41	=41	=41	=41	=41	=41	=41	=41
4B-/	.	4f\	.	4BB-/	.	8r	.	8r	.
.	.	.	.	.	.	8dd\L	.	8ff\L	.
4r	.	4r	.	4r	.	8cc\	.	8ee-\	.
.	.	.	.	.	.	8b-\J	.	8dd\J	.
2r	.	2r	.	2r	.	8cc\L	.	8ee-\L	.
.	.	.	.	.	.	8dd\	.	8ff\	.
.	.	.	.	.	.	8ee-\	.	8gg\	.
.	.	.	.	.	.	8cc\J	.	8aa\J	.
!LO:LB:g=original	!	!	!	!	!	!	!	!	!
=42	=42	=42	=42	=42	=42	=42	=42	=42	=42
4B-/	.	4f\	.	8r	.	4dd\	.	4bb-\	.
.	.	.	.	8B-\L	.	.	.	.	.
4r	.	4r	.	8An\	.	4r	.	4r	.
.	.	.	.	8G\J	.	.	.	.	.
2r	.	2r	.	8F\L	.	2r	.	2r	.
.	.	.	.	8E-\	.	.	.	.	.
.	.	.	.	8D\	.	.	.	.	.
.	.	.	.	8C\J	.	.	.	.	.
!	!	!	!	!LO:LB:g=original	!	!	!	!	!
=43	=43	=43	=43	=43	=43	=43	=43	=43	=43
4B-/	.	4f\	.	4BB-/	.	4d/	.	4b-\	.
4B-/	.	4f\	.	4B-\	.	4d/	.	4b-\	.
4B-/	.	4f\	.	4F\	.	4d/	.	4b-\	.
4B-/	.	4f\	.	4D\	.	4d/	.	4b-\	.
!	!	!	!	!	!	!	!	!LO:LB:g=original	!
=44	=44	=44	=44	=44	=44	=44	=44	=44	=44
2B-/	.	2f\	.	2BB-/	.	2d/	.	2b-\	.
!LO:TX:t=43	!	!LO:TX:t=43	!	!LO:TX:t=43	!	!LO:TX:t=43	!	!LO:TX:t=43	!
2r	.	2r	.	2r	.	2r	.	2r	.
=45:|!|:	=45:|!|:	=45:|!|:	=45:|!|:	=45:|!|:	=45:|!|:	=45:|!|:	=45:|!|:	=45:|!|:	=45:|!|:
!LO:TX:a:t=5	!	!LO:TX:a:t=5	!	!	!	!	!	!	!
00r	.	00r	.	4r	.	4b-\	.	4dd\	p
.	.	.	.	4B-\	.	2b-\	.	2dd\	.
.	.	.	.	4G\	.	.	.	.	.
.	.	.	.	4E-\	.	4cc\	.	4ee-\	.
=46	=46	=46	=46	=46	=46	=46	=46	=46	=46
.	.	.	.	4F\	.	2b-\	.	2dd\	.
.	.	.	.	4FF/	.	.	.	.	.
.	.	.	.	4F\	.	4a\	.	4cc\	.
.	.	.	.	4r	.	4g\	.	4b-\	.
=47	=47	=47	=47	=47	=47	=47	=47	=47	=47
.	.	.	.	2r	.	4f/	.	4a-'/	.
.	.	.	.	.	.	4e-/	.	4g'/	.
.	.	.	.	4r	.	4d/	.	4f'/	.
.	.	.	.	4FF/	.	4c/	.	4e-'/	.
!	!	!	!	!	!	!LO:LB:g=original	!	!	!
=48	=48	=48	=48	=48	=48	=48	=48	=48	=48
.	.	.	.	4BB-/	.	2c/	.	2e-/	.
.	.	.	.	4B-\	.	.	.	.	.
.	.	.	.	4BB-/	.	4B-/	.	4d/	.
.	.	.	.	4r	.	8c/L	.	8e-/L	.
.	.	.	.	.	.	8d/J	.	8f/J	.
=49	=49	=49	=49	=49	=49	=49	=49	=49	=49
1r	.	1r	.	4r	.	4e-/	.	4g/	.
.	.	.	.	4c\	.	2e-/	.	2g/	.
.	.	.	.	4C/	.	.	.	.	.
.	.	.	.	4F\	.	4e-/	.	4a-X/	.
=50	=50	=50	=50	=50	=50	=50	=50	=50	=50
1G	.	1g	.	4G\	.	2d/	.	2g/	.
.	.	.	.	4GG/	.	.	.	.	.
.	.	.	.	4GG/	.	2c/	.	2f/	.
.	.	.	.	4GG/	.	.	.	.	.
!	!	!	!	!LO:LB:g=original	!	!	!	!	!
=51	=51	=51	=51	=51	=51	=51	=51	=51	=51
4e-\	.	4g\	.	4C/	.	4c/	.	4e-/	.
4r	.	4r	.	2c\	p	8g/L	.	8ee-\L	.
.	.	.	.	.	.	8f/J	.	8dd\J	.
!	!	!	!	!	!	!	!	!LO:LB:g=original	!
=-	=-	=-	=-	=-	=-	=-	=-	=-	=-
2r	.	2r	.	.	.	4e-/	.	4cc\	.
.	.	.	.	4B-\	.	4e-/	.	4cc\	.
=52	=52	=52	=52	=52	=52	=52	=52	=52	=52
!LO:TX:a:t=3	!	!LO:TX:a:t=3	!	!	!LO:HP:t=cres	!	!	!	!
0r	.	0r	.	4A-\	<	4d/	.	4cc\	.
.	.	.	.	2A-\	.	8c/L	.	8ee-\L	.
.	.	.	.	.	.	8d/J	.	8dd\J	.
.	.	.	.	.	.	4e-/	.	4cc\	.
.	.	.	.	4AA-/	.	4cc\	.	4cc\	.
=53	=53	=53	=53	=53	=53	=53	=53	=53	=53
.	.	.	.	4GG/	.	4bX|\	.	4dd\	.
.	.	.	.	4GG/	.	4cc|\	.	4ee-\	.
.	.	.	.	4GG/	.	4dd|\	.	4ff\	.
.	.	.	.	4GG/	.	4ee-|\	.	4gg\	.
=54	=54	=54	=54	=54	=54	=54	=54	=54	=54
1r	.	1r	.	4FF/	.	4ff\	.	4aa-\	.
.	.	.	.	4r	.	4r	.	4r	.
.	.	.	.	2r	.	2r	.	2r	.
=55	=55	=55	=55	=55	=55	=55	=55	=55	=55
!	!LO:DY:rj	!	!	!	!	!	!	!	!
1G	p	1g	.	2r	.	(4ee-\	.	4gg\	p
.	.	.	.	.	.	4cc\)	.	4ee-\	.
.	.	.	.	2GG/	.	4r	.	4r	.
!	!	!	!	!	!	!LO:SIC:v:s=4ee-\	!	!	!
.	.	.	.	.	.	4ff\	.	4gg\	.
!	!	!LO:LB:g=original	!	!	!	!LO:LB:g=original	!	!	!
=56	=56	=56	=56	=56	=56	=56	=56	=56	=56
1G	.	1g	.	2r	.	(4dd\	.	4ff\	.
.	.	.	.	.	.	4bX\)	.	4dd\	.
.	.	.	.	2GG/	.	4r	.	4r	.
.	.	.	.	.	.	4dd\	.	4ff\	.
!LO:LB:g=original	!	!	!	!	!	!	!	!	!
=57	=57	=57	=57	=57	=57	=57	=57	=57	=57
1G	.	1g	.	2r	.	(4g/	.	4ee-\	.
.	.	.	.	.	.	4e-/)	.	4cc\	.
.	.	.	.	2GG/	.	4r	.	4r	.
.	.	.	.	.	.	4g/	.	4ee-\	.
=58	=58	=58	=58	=58	=58	=58	=58	=58	=58
1G	.	1g	.	2r	.	(4f/	.	4dd\	.
.	.	.	.	.	.	4d/)	.	4bX\	.
!	!	!	!	!	!	!	!	!LO:LB:g=original	!
=-	=-	=-	=-	=-	=-	=-	=-	=-	=-
.	.	.	.	4GG/	.	4r	.	4r	.
.	.	.	.	4G\	.	4g/	.	4g/	.
=59	=59	=59	=59	=59	=59	=59	=59	=59	=59
!LO:TX:a:t=11	!	!LO:TX:a:t=11	!	!	!	!	!	!	!
00r	.	00r	.	4c\	.	4cc\	.	(4cc\	.
.	.	.	.	4Bn\	.	4bX\	.	4bX\)	.
.	.	.	.	4c\	.	4cc\	.	(4cc\	.
.	.	.	.	4B-X\	.	4b-\	.	4b-\)	.
!	!	!	!	!LO:LB:g=original	!	!	!	!	!
=60	=60	=60	=60	=60	=60	=60	=60	=60	=60
.	.	.	.	4A-\	.	(4a-\	.	(4a-\	.
.	.	.	.	4G\	.	4g\)	.	4g\)	.
.	.	.	.	4A-\	.	4a-\	.	(4a-\	.
!	!	!	!	!LO:SIC:v:s=4F\	!	!	!	!	!
.	.	.	.	4G\	.	4f\	.	4f\)	.
=61	=61	=61	=61	=61	=61	=61	=61	=61	=61
.	.	.	.	4F\	.	4f/	.	4f/	.
.	.	.	.	4E-\	.	4e-/	.	4e-/	.
.	.	.	.	4F\	.	4f/	.	4f/	.
.	.	.	.	4G\	.	4g/	.	4g/	.
=62	=62	=62	=62	=62	=62	=62	=62	=62	=62
.	.	.	.	2C/	.	2c/	.	2c/	.
.	.	.	.	2r	.	4r	.	4r	.
.	.	.	.	.	.	4a-\	.	4cc\	.
=63	=63	=63	=63	=63	=63	=63	=63	=63	=63
00r	.	00r	.	2r	.	(4cc\	.	4ee-\	.
.	.	.	.	.	.	4b-\)	.	4dd-X\	.
.	.	.	.	2E-\	.	4r	.	4r	.
.	.	.	.	.	.	4g/	.	4b-\	.
!	!	!	!	!	!	!LO:LB:g=original	!	!	!
=64	=64	=64	=64	=64	=64	=64	=64	=64	=64
.	.	.	.	2A-\	.	(4b-\	.	4dd-X\	.
.	.	.	.	.	.	4a-\)	.	4cc\	.
.	.	.	.	2AA-/	.	4r	.	4r	.
.	.	.	.	.	.	4f/	.	4a-\	.
=65	=65	=65	=65	=65	=65	=65	=65	=65	=65
.	.	.	.	2r	.	(4a-/	.	4cc\	.
.	.	.	.	.	.	4g/)	.	4b-\	.
.	.	.	.	2C/	.	4r	.	4r	.
.	.	.	.	.	.	4eX/	.	4g/	.
!	!	!	!	!	!	!	!	!LO:LB:g=original	!
=66	=66	=66	=66	=66	=66	=66	=66	=66	=66
.	.	.	.	2F\	.	(4g/	.	4b-\	.
.	.	.	.	.	.	4f/)	.	4a-\	.
.	.	.	.	2FF/	.	4r	.	4r	.
.	.	.	.	.	.	4d/	.	4f/	.
=67	=67	=67	=67	=67	=67	=67	=67	=67	=67
!	!	!LO:N:vis=00r	!	!	!	!	!	!	!
0r	.	0r	.	2r	.	(4f/	.	4a-/	.
.	.	.	.	.	.	4e-/)	.	4g/	.
.	.	.	.	2C/	.	4r	.	4r	.
.	.	.	.	.	.	4e-/	.	4g/	.
=68	=68	=68	=68	=68	=68	=68	=68	=68	=68
.	.	.	.	2E-\	.	4d/	.	4f/	.
.	.	.	.	.	.	4e-/	.	4g/	.
.	.	.	.	2EE-/	.	4f/	.	4a-/	.
.	.	.	.	.	.	4e-/	.	4g/	.
=69	=69	=69	=69	=69	=69	=69	=69	=69	=69
1r	.	1r	.	1BB-	.	4f/	.	4a-\	.
.	.	.	.	.	.	4g/	.	4b-\	.
.	.	.	.	.	.	4a-/	.	4cc\	.
.	.	.	.	.	.	4f/	.	4dd\	.
!	!	!	!	!LO:LB:g=original	!	!	!	!	!
=70	=70	=70	=70	=70	=70	=70	=70	=70	=70
4G'/	f	4e-|\	.	4E-\	.	(4g/	.	4ee-|\	.
4B-'/	.	4f|\	.	4BB-/	.	4a-/)	.	4dd|\	.
4G'/	.	4e-|\	.	4EE-/	.	(4g/	.	4ee-|\	.
4B-'/	.	4f|\	.	4BB-/	.	4a-/)	.	4dd|\	.
=71	=71	=71	=71	=71	=71	=71	=71	=71	=71
4G'/	.	4e-|\	.	4E-\	.	(4g/	.	4ee-|\	.
4B-'/	.	4f|\	.	4BB-/	.	4a-/)	.	4dd|\	.
4G'/	.	4e-|\	.	4EE-/	.	(4g/	.	4ee-|\	.
4B-'/	.	4f|\	.	4BB-/	.	4a-/)	.	4dd|\	.
!	!	!	!	!	!	!LO:LB:g=original	!	!	!
=72	=72	=72	=72	=72	=72	=72	=72	=72	=72
!	!	!	!	!	!	!	!	!LO:SIC:v:s=4ee-|\	!
4G|/	.	4e-|\	.	4E-\	.	4g|\	.	4dd|\	.
4B-|/	.	4f|\	.	4D\	.	4b-|\	.	4ff|\	.
4e-|\	.	4g|\	.	4E-\	.	4dd|\	.	4gg|\	.
4f|\	.	4a-|\	.	4AA-/	.	4ff|\	.	4aa-|\	.
=73	=73	=73	=73	=73	=73	=73	=73	=73	=73
(2e-\	.	(2g\	.	4BB-/	.	(2ee-\	.	(2gg\	.
.	.	.	.	4B-\	.	.	.	.	.
4B-/)	.	4f\)	.	4BB-/	.	4dd\)	.	4ff\)	.
4r	.	4r	.	4r	.	4r	.	4r	.
!	!	!	!	!	!	!	!	!LO:LB:g=original	!
=74	=74	=74	=74	=74	=74	=74	=74	=74	=74
4B-/	.	4f'\	.	4BB-/	.	(4dd\	.	4ff|\	.
4G/	.	4e-'\	.	4E-\	.	4ee-\)	.	4ee-|\	.
4B-/	.	4f'\	.	4BB-/	.	(4dd\	.	4ff'|\	.
4G/	.	4e-'\	.	4E-\	.	4ee-\)	.	4ee-|\	.
!LO:LB:g=original	!	!	!	!	!	!	!	!	!
=75	=75	=75	=75	=75	=75	=75	=75	=75	=75
4B-/	.	4f'\	.	4BB-/	.	(4dd\	.	4ff|\	.
4G/	.	4e-'\	.	4E-\	.	4ee-\)	.	4ee-|\	.
4B-/	.	4f'\	.	4BB-/	.	(4dd\	.	4ff|\	.
4G/	.	4e-'\	.	4E-\	.	4ee-\)	.	4ee-|\	.
!	!	!LO:LB:g=original	!	!	!	!	!	!	!
=76	=76	=76	=76	=76	=76	=76	=76	=76	=76
4B-|/	.	4f|\	.	4BB-/	.	4dd|\	.	4ff|\	.
4e-|\	.	4g'\	.	4BB-/	.	4ee-|\	.	4gg|\	.
4f|\	.	4a-|\	.	4BB-/	.	4ff|\	.	4aa-|\	.
4g|\	.	4b-|\	.	4BB-/	.	4gg|\	.	4bb-|\	.
=77	=77	=77	=77	=77	=77	=77	=77	=77	=77
(2f\	.	(2a-\	.	4BB-/	.	2ff\	.	(2aa-\	.
.	.	.	.	4E-\	.	.	.	.	.
4e-\)	.	4g\)	.	4EE-/	.	4ee-\	.	4gg\)	.
4r	.	4r	.	4r	.	4r	.	4r	.
!	!	!	!	!LO:LB:g=original	!	!	!	!	!
=78	=78	=78	=78	=78	=78	=78	=78	=78	=78
!LO:TX:a:t=5	!	!LO:TX:a:t=5	!	!	!	!	!	!	!
00r	.	00r	.	8E-\L	.	4b-\	p	4gg\	.
.	.	.	.	8F\	.	.	.	.	.
.	.	.	.	8G\	.	2ee-\	.	2gg\	.
.	.	.	.	8A-\J	.	.	.	.	.
.	.	.	.	4B-\	.	.	.	.	.
.	.	.	.	4BB-/	.	4dd\	.	4ff\	.
=79	=79	=79	=79	=79	=79	=79	=79	=79	=79
.	.	.	.	8C\L	.	4cc\	.	4ee-\	.
.	.	.	.	8D\	.	.	.	.	.
.	.	.	.	8E-\	.	2cc\	.	2ee-\	.
.	.	.	.	8F\J	.	.	.	.	.
.	.	.	.	4G\	.	.	.	.	.
.	.	.	.	4GG/	.	4b-\	f	4dd\	.
!	!	!	!	!	!	!LO:LB:g=original	!	!	!
=80	=80	=80	=80	=80	=80	=80	=80	=80	=80
.	.	.	.	4AA-/	.	4a-\	.	4cc\	.
.	.	.	.	4A-\	.	2a-\	.	2cc\	.
.	.	.	.	8A-\L	.	.	.	.	.
.	.	.	.	8G\	.	.	.	.	.
.	.	.	.	8F\	.	4a-\	.	4cc\	.
.	.	.	.	8E-\J	.	.	.	.	.
=81	=81	=81	=81	=81	=81	=81	=81	=81	=81
.	.	.	.	2D\	.	2a-\	.	2cc\	.
=-	=-	=-	=-	=-	=-	=-	=-	=-	=-
.	.	.	.	2E-\	.	(8g\L	.	8b-\L	.
.	.	.	.	.	.	8a-\	.	8cc\	.
.	.	.	.	.	.	8b-\	.	8dd\	.
.	.	.	.	.	.	8cc\J)	.	8ee-\J	.
=82	=82	=82	=82	=82	=82	=82	=82	=82	=82
.	.	.	.	.	.	16qqcc/	.	16qqee-/	.
1r	.	1r	.	2B-\	.	4b-\	.	4dd\	.
.	.	.	.	.	.	(8a-\L	.	(8cc\L	.
.	.	.	.	.	.	8g\J)	.	8b-\J)	.
.	.	.	.	.	.	16qqg/	.	16qqb-/	.
.	.	.	.	2BB-/	.	4f/	.	4a-\	.
.	.	.	.	.	.	(8e-/L	.	(8g\L	.
.	.	.	.	.	.	8d/J)	.	8f\J)	.
=83	=83	=83	=83	=83	=83	=83	=83	=83	=83
4G/	.	4e-\	.	2E-\	.	4e-/	.	4e-/	.
4B-/	.	4f\	.	.	.	4r	.	4r	.
4G/	.	4e-\	.	2r	.	2r	.	2r	.
4B-/	.	4f\	.	.	.	.	.	.	.
=84	=84	=84	=84	=84	=84	=84	=84	=84	=84
4e-\	.	4g\	.	4E-\	.	4e-/	.	4g|/	.
4f\	.	4a-\	.	4D\	.	4f/	.	4a-|/	.
4e-\	.	4g\	.	4E-\	.	4e-/	.	4g|/	.
4f\	.	4aX\	.	4C\	.	4e-/	.	4a|/	.
!	!	!	!	!LO:LB:g=original	!	!	!	!	!
=85	=85	=85	=85	=85	=85	=85	=85	=85	=85
4B-/	.	4b-\	.	4BB-/	.	4d/	.	4b-|\	.
4r	.	4r	.	4FF/	.	4a\	.	4cc|\	.
2r	.	2r	.	4BB-/	.	4b-\	.	4dd|\	.
.	.	.	.	4r	.	4g\	.	4ee-|\	.
=86	=86	=86	=86	=86	=86	=86	=86	=86	=86
!	!	!	!	!LO:TX:t=P:problem:mixed beam	!	!	!	!	!
1B-	.	1f	.	8BB-/L	.	2.a-X\	.	2.ff\	.
.	.	.	.	8B-\	.	.	.	.	.
.	.	.	.	8An\	.	.	.	.	.
.	.	.	.	8B-\J	.	.	.	.	.
.	.	.	.	8d\L	.	.	.	.	.
.	.	.	.	8B-\	.	.	.	.	.
.	.	.	.	8F\	.	4f\	.	4a-X\	.
.	.	.	.	8BB-\J	.	.	.	.	.
!LO:LB:g=original	!	!	!	!	!	!LO:LB:g=original	!	!LO:LB:g=original	!
=87	=87	=87	=87	=87	=87	=87	=87	=87	=87
!	!	!	!	!LO:TX:t=P:problem:mixed beam	!	!	!	!	!
1e-	.	1g	.	8BB-/L	.	2e-/	.	2g/	.
.	.	.	.	8B-\	.	.	.	.	.
.	.	.	.	8An\	.	.	.	.	.
.	.	.	.	8B-\J	.	.	.	.	.
.	.	.	.	8e-\L	.	4r	.	4r	.
.	.	.	.	8B-\	.	.	.	.	.
.	.	.	.	8G\	.	4ee-\	.	4gg\	.
.	.	.	.	8E-\J	.	.	.	.	.
=88	=88	=88	=88	=88	=88	=88	=88	=88	=88
!	!	!	!	!LO:TX:t=P:problem:mixed beam	!	!	!	!	!
1B-	.	1f	.	8BB-/L	.	2dd\	.	2ff\	.
.	.	.	.	8B-\	.	.	.	.	.
.	.	.	.	8An\	.	.	.	.	.
.	.	.	.	8B-\J	.	.	.	.	.
.	.	.	.	8d\L	.	4r	.	4r	.
.	.	.	.	8B-\	.	.	.	.	.
.	.	.	.	8F\	.	4f/	.	4a-\	.
.	.	.	.	8BB-\J	.	.	.	.	.
=89	=89	=89	=89	=89	=89	=89	=89	=89	=89
!	!	!	!	!LO:TX:t=P:problem:mixed beam	!	!	!	!	!
1e-	.	1g	.	8BB-/L	.	2e-/	.	2g/	.
.	.	.	.	8B-\	.	.	.	.	.
.	.	.	.	8An\	.	.	.	.	.
.	.	.	.	8B-\J	.	.	.	.	.
.	.	.	.	8e-\L	.	4r	.	4r	.
.	.	.	.	8B-\	.	.	.	.	.
.	.	.	.	8G\	.	4ee-\	.	4gg\	.
.	.	.	.	8E-\J	.	.	.	.	.
!	!	!LO:LB:g=original	!	!LO:LB:g=original	!	!	!	!	!
=90	=90	=90	=90	=90	=90	=90	=90	=90	=90
4B-/	.	4f\	.	4BB-/	.	8dd\	.	4aa-\	.
.	.	.	.	.	.	8r	.	.	.
4r	.	4r	.	4r	.	(4B-/	.	4r	.
2r	.	2r	.	2r	.	4c/	.	2r	.
.	.	.	.	.	.	4d/)	.	.	.
=91	=91	=91	=91	=91	=91	=91	=91	=91	=91
!LO:TX:a:t=2	!	!LO:TX:a:t=2	!	!LO:TX:a:t=1	!	!	!	!	!
0r	.	0r	.	1r	.	4e-/	.	4g/	.
.	.	.	.	.	.	4d/	.	4d/	.
.	.	.	.	.	.	4e-/	.	4e-/	.
.	.	.	.	.	.	4f/	.	4d/	.
=92	=92	=92	=92	=92	=92	=92	=92	=92	=92
.	.	.	.	4r	.	4g/	.	4e-/	.
.	.	.	.	4BB-/	.	4f/	.	4d/	.
.	.	.	.	4C/	.	4e-/	.	4e-/	.
.	.	.	.	4D/	.	4B-/	.	4f/	.
=93	=93	=93	=93	=93	=93	=93	=93	=93	=93
4e-\	.	4g\	.	4E-\	.	4B-/	.	8g\L	.
.	.	.	.	.	.	.	.	8b-\	.
4r	.	4r	.	4r	.	4r	.	8a\	.
.	.	.	.	.	.	.	.	8b-\J	.
4r	.	4r	.	4r	.	4r	.	8cc\L	.
.	.	.	.	.	.	.	.	8b-\	.
4B-/	.	4f\	.	4BB-/	.	4a-/	.	8dd\	.
.	.	.	.	.	.	.	.	8b-\J	.
!	!	!	!	!	!	!	!	!LO:LB:g=original	!
=94	=94	=94	=94	=94	=94	=94	=94	=94	=94
4e-\	.	4g\	.	4EE-/	.	4g/	.	8ee-\L	.
.	.	.	.	.	.	.	.	8b-\	.
4r	.	4r	.	4r	.	4r	.	8a\	.
.	.	.	.	.	.	.	.	8b-\J	.
!	!	!	!	!	!	!LO:LB:g=original	!	!	!
=-	=-	=-	=-	=-	=-	=-	=-	=-	=-
4r	.	4r	.	4r	.	4r	.	8cc\L	.
.	.	.	.	.	.	.	.	8b-\	.
4B-/	.	4f\	.	4BB-/	.	4a-/	.	8dd\	.
.	.	.	.	.	.	.	.	8b-\J	.
=95	=95	=95	=95	=95	=95	=95	=95	=95	=95
4e-\	.	4g\	.	4EE-/	.	4g/	.	8ee-\L	.
.	.	.	.	.	.	.	.	8b-\	.
4r	.	4r	.	4r	.	4r	.	8a\	.
.	.	.	.	.	.	.	.	8b-\J	.
4r	.	4r	.	4r	.	4r	.	8cc\L	.
.	.	.	.	.	.	.	.	8b-\	.
4B-/	.	4f\	.	4BB-/	.	4a-/	.	8dd\	.
.	.	.	.	.	.	.	.	8b-\J	.
=96	=96	=96	=96	=96	=96	=96	=96	=96	=96
4e-\	.	4g\	.	4EE-/	.	4g/	.	4ee-\	.
4r	.	4r	.	4r	.	4r	.	4r	.
2r	.	2r	.	2r	.	2r	.	2r	.
!LO:LB:g=original	!	!	!	!	!	!	!	!	!
=97	=97	=97	=97	=97	=97	=97	=97	=97	=97
!	!	!LO:TX:b:i:t=dol	!	!	!	!	!	!	!
!	!	!LO:TX:a:i:t=Solo	!	!	!	!LO:TX:a:t=3	!	!LO:TX:a:t=3	!
4e-\	.	4g\	.	4r	.	0r	.	0r	.
!LO:TX:a:i:t=Solo	!	!	!	!	!	!	!	!	!
2e-\	.	2g\	.	4E-\	.	.	.	.	.
.	.	.	.	4C/	.	.	.	.	.
!LO:TX:b:i:t=dol.	!	!	!	!	!	!	!	!	!
4f\	.	4a-\	.	4AA-/	.	.	.	.	.
!	!	!	!	!LO:LB:g=original	!	!	!	!	!
=98	=98	=98	=98	=98	=98	=98	=98	=98	=98
2e-\	.	2g\	.	4BB-/	.	.	.	.	.
.	.	.	.	4B-\	.	.	.	.	.
4B-/	.	4f\	.	4BB-/	.	.	.	.	.
8B-/L	.	8f\L	.	4r	.	.	.	.	.
8e-/J	.	8g\J	.	.	.	.	.	.	.
!	!	!LO:LB:g=original	!	!	!	!	!	!	!
=99	=99	=99	=99	=99	=99	=99	=99	=99	=99
4f\	.	4a-\	.	4r	.	1r	.	1r	.
2f\	.	2a-\	.	4F\	.	.	.	.	.
.	.	.	.	4D\	.	.	.	.	.
4g\	.	4b-\	.	4BB-/	.	.	.	.	.
=100	=100	=100	=100	=100	=100	=100	=100	=100	=100
2f\	.	(2a-\	.	4E-\	.	2r	.	2r	.
.	.	.	.	4BB-/	.	.	.	.	.
4e-\	.	4g\)	.	4EE-/	.	4r	.	4r	.
(8e-\L	.	8g\L	.	4r	.	8e-/L	.	(8g/L	.
!	!	!	!	!	!	!LO:SIC:v:s=8f/J	!	!	!
8f\J)	.	8a-\J	.	.	.	8g/J	.	8a-/J)	.
=101	=101	=101	=101	=101	=101	=101	=101	=101	=101
4g\	.	4b-\	.	4EE-/	.	4g/	.	8b-\L	.
.	.	.	.	.	.	.	.	8b-\	.
4r	.	4r	.	4r	.	4r	.	8a\	.
.	.	.	.	.	.	.	.	8b-\J	.
4r	.	4r	.	4r	.	4r	.	8cc\L	.
.	.	.	.	.	.	.	.	8b-\	.
4B-/	.	4f\	.	4BB-/	.	4a-/	.	8dd\	.
.	.	.	.	.	.	.	.	8b-\J	.
=102	=102	=102	=102	=102	=102	=102	=102	=102	=102
4e-\	.	4g\	.	4EE-/	.	4g/	.	8ee-\L	.
.	.	.	.	.	.	.	.	8b-\	.
4r	.	4r	.	4r	.	4r	.	8a\	.
.	.	.	.	.	.	.	.	8b-\J	.
4r	.	4r	.	4r	.	4r	.	8cc\L	.
.	.	.	.	.	.	.	.	8b-\	.
4B-/	.	4f\	.	4BB-/	.	4a-/	.	8dd\	.
.	.	.	.	.	.	.	.	8b-\J	.
!	!	!	!	!	!	!	!	!LO:LB:g=original	!
=103	=103	=103	=103	=103	=103	=103	=103	=103	=103
4e-\	.	4g\	.	4EE-/	.	4g/	.	8ee-\L	.
.	.	.	.	.	.	.	.	8b-\	.
4r	.	4r	.	4r	.	4r	.	8a\	.
.	.	.	.	.	.	.	.	8b-\J	.
4r	.	4r	.	4r	.	4r	.	8cc\L	.
.	.	.	.	.	.	.	.	8b-\	.
4B-/	.	4f\	.	4BB-/	.	4a-/	.	8dd\	.
.	.	.	.	.	.	.	.	8b-\J	.
!LO:LB:g=original	!	!	!	!	!	!LO:LB:g=original	!	!	!
=104	=104	=104	=104	=104	=104	=104	=104	=104	=104
4e-\	.	4g\	.	4EE-/	.	4g/	.	4ee-\	.
4r	.	4r	.	4r	.	4r	.	4dd-X\	.
2r	.	2r	.	2r	.	2r	.	4cc\	.
.	.	.	.	.	.	.	.	4b-\	.
=105||	=105	=105	=105	=105	=105	=105	=105	=105	=105
2f\	.	2f\	.	4FF/	.	2c/	.	2a\	.
.	.	.	.	8F\L	.	.	.	.	.
.	.	.	.	8E-\J	.	.	.	.	.
!	!	!	!	!LO:LB:g=original	!	!	!	!	!
=-	=-	=-	=-	=-	=-	=-	=-	=-	=-
2B-/	.	2f\	.	8D\L	.	4d/	.	2a-X\	.
.	.	.	.	8BB-\	.	.	.	.	.
.	.	.	.	8C\	.	8e-/L	.	.	.
.	.	.	.	8D\J	.	8f/J	.	.	.
=106	=106	=106	=106	=106	=106	=106	=106	=106	=106
4e-\	.	4g\	.	4E-\	.	4e-/	.	4g/	.
4r	.	4r	.	4EE-/	.	8e-/L	.	8g/L	.
.	.	.	.	.	.	8g/J	.	8b-/J	.
.	.	.	.	.	.	16qqg/	.	16qqa-/	.
2r	.	2r	.	4AA-/	.	4f/	.	4a-/	.
.	.	.	.	4BB-/	.	8e-/L	.	8g/L	.
.	.	.	.	.	.	8d/J	.	8f/J	.
!	!	!LO:LB:g=original	!	!	!	!	!	!	!
=107	=107	=107	=107	=107	=107	=107	=107	=107	=107
8e-\L	.	8r	.	4EE-/	.	4e-/	.	4g/	.
8g\	.	8b-\L	.	.	.	.	.	.	.
8f\	.	8a-\	.	4r	.	4r	.	4r	.
8e-\J	.	8g\J	.	.	.	.	.	.	.
8f\L	.	8a-\L	.	2r	.	2r	.	2r	.
8g\	.	8b-\	.	.	.	.	.	.	.
8a-\	.	8cc\	.	.	.	.	.	.	.
8f\J	.	8dd\J	.	.	.	.	.	.	.
=108	=108	=108	=108	=108	=108	=108	=108	=108	=108
4g\	.	4ee-\	.	8r	.	8r	.	8r	.
.	.	.	.	8E-/L	.	8e-/L	.	8e-/L	.
4r	.	4r	.	8D/	.	8d/	.	8d/	.
.	.	.	.	8C/J	.	8c/J	.	8c/J	.
2r	.	2r	.	8BB-/L	.	8B-/L	.	8B-/L	.
.	.	.	.	8AA-/	.	8A-/	.	8A-/	.
.	.	.	.	8GG/	.	8G/	.	8G/	.
.	.	.	.	8FF/J	.	8F/J	.	8F/J	.
=109	=109	=109	=109	=109	=109	=109	=109	=109	=109
!	!	!	!	!LO:TX:a:t=Takty 108-109 zapisane repetycją	!	!	!	!	!
8e-\L	.	8r	.	4EE-/	.	4E-/	.	4E-/	.
8g\	.	8b-\L	.	.	.	.	.	.	.
8f\	.	8a-\	.	4r	.	4r	.	4r	.
8e-\J	.	8g\J	.	.	.	.	.	.	.
8f\L	.	8a-\L	.	2r	.	2r	.	2r	.
8g\	.	8b-\	.	.	.	.	.	.	.
8a-\	.	8cc\	.	.	.	.	.	.	.
8f\J	.	8dd\J	.	.	.	.	.	.	.
=110	=110	=110	=110	=110	=110	=110	=110	=110	=110
4g\	.	4ee-\	.	8r	.	8r	.	8r	.
.	.	.	.	8E-/L	.	8e-/L	.	8e-/L	.
4r	.	4r	.	8D/	.	8d/	.	8d/	.
.	.	.	.	8C/J	.	8c/J	.	8c/J	.
!	!	!	!	!	!	!LO:LB:g=original	!	!	!
=-	=-	=-	=-	=-	=-	=-	=-	=-	=-
2r	.	2r	.	8BB-/L	.	8B-/L	.	8B-/L	.
.	.	.	.	8AA-/	.	8A-/	.	8A-/	.
.	.	.	.	8GG/	.	8G/	.	8G/	.
.	.	.	.	8FF/J	.	8F/J	.	8F/J	.
!LO:LB:g=original	!	!	!	!	!	!	!	!LO:LB:g=original	!
=111	=111	=111	=111	=111	=111	=111	=111	=111	=111
4G'/	.	4e-'\	.	4EE-/	.	(4G/	.	4E-/	.
4B-'/	.	4f'\	.	4BB-/	.	4A-/)	.	4d/	.
4G'/	.	4e-'\	.	4E-\	.	(4G/	.	4e-/	.
4B-'/	.	4f'\	.	4BB-/	.	4A-/)	.	4d/	.
=112	=112	=112	=112	=112	=112	=112	=112	=112	=112
4G'/	.	4e-'\	.	4EE-/	.	(4G/	.	4e-/	.
4B-'/	.	4f'\	.	4BB-/	.	4A-/)	.	4d/	.
4G'/	.	4e-'\	.	4E-\	.	(4G/	.	4e-/	.
4B-'/	.	4f'\	.	4BB-/	.	4A-/)	.	4d/	.
!	!	!LO:LB:g=original	!	!	!	!	!	!	!
=113	=113	=113	=113	=113	=113	=113	=113	=113	=113
4G'/	.	4e-|\	.	4EE-/	.	(4G/	.	4e-/	.
4B-'/	.	4f|\	.	4BB-/	.	4A-/)	.	4d/	.
4G'/	.	4e-|\	.	4E-\	.	(4G/	.	4e-/	.
4B-'/	.	4f|\	.	4BB-/	.	4A-/)	.	4d/	.
=114	=114	=114	=114	=114	=114	=114	=114	=114	=114
2G/	.	2e-\	.	2E-\	.	2G/	.	2e-/	.
2G/	.	2e-\	.	2E-\	.	2G/	.	2e-/	.
=115	=115	=115	=115	=115	=115	=115	=115	=115	=115
2G/	.	2e-\	.	2E-\	.	2B-/	.	2e-/	.
!LO:TX:t=71	!	!LO:TX:t=71	!	!LO:TX:t=71	!	!LO:TX:t=71	!	!LO:TX:t=71	!
!	!	!	!	!	!	!	!	!LO:TX:b:t=/&colon; Subito &colon;/	!
2r	.	2r	.	2r	.	2r	.	2r	.
!LO:LB:g=original	!	!LO:LB:g=original	!	!LO:PB:g=original	!	!LO:PB:g=original	!	!LO:PB:g=original	!
==:|!	==:|!	==:|!	==:|!	==:|!	==:|!	==:|!	==:|!	==:|!	==:|!
*-	*-	*-	*-	*-	*-	*-	*-	*-	*-
!!!system-decoration: [(s1,s2)][(s3,s4,s5)]
!!!RDF**kern: < = below
!!!RDF**kern: > = above
!!!RDF**kern: | = vertical stroke
!!!ENC: Marta Chmielewska
!!!END: 2021-06-30
!!!ENC: Tomasz Grochalski
!!!END: 2021-06-18
